app/dist/common/images/fortinet.svg

<svg height="18" width="18" xmlns="http://www.w3.org/2000/svg"><path d="m0 0h18v18h-18z" fill="#f00"/><path d="m15 11.174c-.125.9-.643 1.615-1.307 1.826h-2.103v-2h3.41zm0-1.174v-2h-3.409v2zm-8.601 0v-2h-3.399v2zm-3.399 1v.171c.124.9.64 1.618 1.308 1.829h2.09v-2zm4.327 0v2h3.335v-2zm-.927-4h-3.4v-.146c.13-.94.687-1.68 1.395-1.854h2.005zm4.263 0h-3.336v-2h3.335v2zm4.337 0h-3.41v-2h2.014c.71.174 1.265.913 1.396 1.852z" fill="#fff"/></svg>

<!-- by TradingView --><svg width="18" height="18" xmlns="http://www.w3.org/2000/svg"><path fill="red" d="M0 0h18v18H0z"/><path d="M15 11.174c-.125.9-.643 1.615-1.307 1.826H11.59v-2H15v.174zM15 10V8h-3.409v2H15zm-8.601 0V8H3v2h3.399zM3 11v.171c.124.9.64 1.618 1.308 1.829h2.09v-2H3zm4.327 0v2h3.335v-2H7.327zM6.4 7H3v-.146c.13-.94.687-1.68 1.395-1.854H6.4v2zm4.263 0H7.327V5h3.335v2zM15 7h-3.41V5h2.014c.71.174 1.265.913 1.396 1.852V7z" fill="#fff"/></svg>
